X:WFS 14-03 28
T:Redesdale Hornpipe
M:4/4
K:G
P:A
(3def| gdBd G2(3def gdBd G2AB |1,3 cAFA DFAc ed^cd B2 :|2,4 cAFA DFAB A2G2 G2 :|
P:B
GA| BGFG DGFG BGFG D2AB |1,3 cAFA DFAc ed^cd B2 :|2,4 cAFA DFAB A2G2 G2 :|

% aborted D3| G2dB2A F2AD3 E2Gc2e d2BG2B |1,3 cdeABc BadGAB A2BA2G F2Ad2D :|2,4 c2eA2c F2AD2F A3G3 G3 :|

